source_images/ic_set/ic_set_guilds.svg

<svg xmlns:svg="http://www.w3.org/2000/svg" xmlns="http://www.w3.org/2000/svg" width="18" height="18" viewBox="0 0 18 18" version="1.1"><path d="m1.42 18 0.33-2.89 0.64-1.08 0-0.04 0-0.01C2.29 13.76 2.23 13.52 2.23 13.26l0-0.03-0.02-0.04-0.36-0.24-0.13-0.09 0.72-1.25 0.15 0.11 0.29 0.2 0.05 0 0.01-0.01c0.24-0.16 0.52-0.26 0.83-0.27l0.01 0 0.04-0.02 2.98-5.04 0.01-0.02C6.16 5.97 5.75 5.12 5.75 4.17c0-1.56 1.1-2.87 2.58-3.17l0-0.04 0-0.95 1.34 0 0 0.96 0 0.04c1.47 0.31 2.57 1.61 2.57 3.17 0 0.94-0.4 1.8-1.05 2.39l0.05 0.08 2.95 4.99 0.04 0.02 0.01 0c0.31 0.01 0.59 0.11 0.83 0.27l0.01 0.01 0.05 0 0.29-0.2 0.15-0.11 0.72 1.25-0.12 0.09-0.36 0.24-0.02 0.04 0 0.03c0 0.26-0.06 0.5-0.16 0.72l0 0.01 0 0.04 0.64 1.08 0.33 2.89-1.7-1.98-0.65-1.12-0.04-0.02-0.02 0c-0.37 0-0.71-0.13-0.98-0.34l-0.01 0-0.04-0.01-0.63 0.22-0.85 0.22c-0.86 0.19-1.75 0.29-2.67 0.29-0.92 0-1.81-0.1-2.67-0.29l-0.85-0.22-0.63-0.22-0.04 0.01-0.01 0.01C4.54 14.75 4.2 14.87 3.83 14.87l-0.02 0-0.04 0.02-0.65 1.12-1.7 1.98zm10.61-4.61 0.52-0.18 0.03-0.04 0-0.01c0.01-0.25 0.09-0.49 0.21-0.7l0-0.01 0-0.05-2.94-5.09-0.01-0.02c-0.27 0.07-0.56 0.11-0.85 0.11-0.29 0-0.58-0.04-0.85-0.11l-0.01 0.02-2.94 5.09 0 0.05 0 0.01c0.12 0.21 0.19 0.45 0.21 0.7l0 0.01 0.03 0.04 0.52 0.18c0.96 0.28 1.98 0.43 3.04 0.43 1.05 0 2.07-0.15 3.03-0.43zM10.89 4.17c0-1.04-0.85-1.89-1.89-1.89-1.04 0-1.89 0.85-1.89 1.89 0 1.04 0.85 1.89 1.89 1.89 1.04 0 1.89-0.85 1.89-1.89z" fill="#000"/></svg>

<?xml version="1.0" standalone="no"?>
<!DOCTYPE svg PUBLIC "-//W3C//DTD SVG 1.1//EN" "http://www.w3.org/Graphics/SVG/1.1/DTD/svg11.dtd">
<svg xmlns:xlink="http://www.w3.org/1999/xlink" xmlns="http://www.w3.org/2000/svg" version="1.1" width="18px" height="18px" viewBox="0 0 18 18">
  <path d="M1.42 18L1.75 15.11L2.39 14.03L2.39 13.98L2.39 13.98C2.28 13.76 2.23 13.52 2.23 13.26L2.23 13.23L2.21 13.19L1.84 12.95L1.72 12.86L2.44 11.61L2.59 11.72L2.88 11.92L2.93 11.92L2.94 11.91C3.18 11.75 3.46 11.66 3.77 11.65L3.77 11.65L3.81 11.62L6.79 6.59L6.81 6.56C6.16 5.97 5.75 5.12 5.75 4.17C5.75 2.61 6.86 1.3 8.33 1L8.33 0.96L8.33 0L9.67 0L9.67 0.96L9.67 1C11.14 1.31 12.24 2.61 12.24 4.17C12.24 5.11 11.83 5.96 11.19 6.56L11.24 6.64L14.18 11.62L14.22 11.65L14.23 11.65C14.54 11.66 14.82 11.75 15.06 11.91L15.07 11.92L15.12 11.92L15.4 11.72L15.56 11.61L16.28 12.86L16.16 12.95L15.79 13.19L15.77 13.23L15.77 13.26C15.77 13.52 15.71 13.76 15.61 13.98L15.6 13.98L15.6 14.03L16.24 15.11L16.58 18L14.88 16.02L14.23 14.9L14.19 14.88L14.18 14.88C13.81 14.88 13.47 14.75 13.19 14.53L13.19 14.53L13.14 14.52L12.51 14.74L11.67 14.96C10.81 15.15 9.92 15.25 9 15.25C8.08 15.25 7.19 15.15 6.33 14.96L5.48 14.74L4.85 14.52L4.81 14.53L4.8 14.53C4.53 14.75 4.19 14.88 3.82 14.88L3.8 14.88L3.76 14.9L3.12 16.02L1.42 18zM12.03 13.39L12.55 13.21L12.58 13.17L12.58 13.16C12.6 12.91 12.67 12.67 12.79 12.46L12.8 12.45L12.8 12.41L9.86 7.32L9.85 7.3C9.58 7.37 9.29 7.41 9 7.41C8.7 7.41 8.42 7.37 8.15 7.3L8.14 7.32L5.2 12.41L5.2 12.45L5.21 12.46C5.32 12.67 5.4 12.91 5.41 13.16L5.41 13.17L5.44 13.21L5.96 13.39C6.93 13.67 7.94 13.82 9 13.82C10.05 13.82 11.07 13.67 12.03 13.39zM10.89 4.17C10.89 3.13 10.04 2.28 9 2.28C7.95 2.28 7.1 3.13 7.1 4.17C7.1 5.21 7.95 6.06 9 6.06C10.04 6.06 10.89 5.21 10.89 4.17z" fill="#000000" stroke="none"/>

</svg>
